packages/ffe-icons/icons/filled/md/branding_watermark.svg

<svg xmlns="http://www.w3.org/2000/svg" height="24" viewBox="0 -960 960 960" width="24"><path d="M446.154-290.001h267.692q15.461 0 25.807-10.346 10.346-10.346 10.346-25.807v-161.539q0-15.461-10.346-25.807-10.346-10.346-25.807-10.346H446.154q-15.461 0-25.807 10.346-10.346 10.346-10.346 25.807v161.539q0 15.461 10.346 25.807 10.346 10.346 25.807 10.346Zm-273.845 110q-30.308 0-51.308-21t-21-51.308v-455.382q0-30.308 21-51.308t51.308-21h615.382q30.308 0 51.308 21t21 51.308v455.382q0 30.308-21 51.308t-51.308 21H172.309Z"/></svg>

<svg xmlns="http://www.w3.org/2000/svg" height="24" viewBox="0 -960 960 960" width="24"><path d="M446.15-290h267.7q15.46 0 25.8-10.35Q750-310.69 750-326.15v-161.54q0-15.46-10.35-25.81-10.34-10.35-25.8-10.35h-267.7q-15.46 0-25.8 10.35Q410-503.15 410-487.69v161.54q0 15.46 10.35 25.8Q430.69-290 446.15-290ZM172.31-180Q142-180 121-201q-21-21-21-51.31v-455.38Q100-738 121-759q21-21 51.31-21h615.38Q818-780 839-759q21 21 21 51.31v455.38Q860-222 839-201q-21 21-51.31 21H172.31Z"/></svg>
